X: 20891
T: What the Devil ails you
%R: air, waltz; march, reel
B: James Oswald "The Caledonian Pocket Companion" v.2 p.89 #1
Z: 2019 John Chambers <jc:trillian.mit.edu>
M: 3/4
L: 1/8
K: Am
"_Slow"(ed) |\
{d}c2 A2 eg | a3 g (e/d/c) |\
Td2 c2 d2 | e3 g de |\
{d}c2 A2 eg | a3 g e2 |\
(ge)(ge)(dc) | d6 :: e2 |\
{d}c2 A2 A2 | A4 B2 |\
c3 d (e/d/c) |
(de)(ge)(de) |\
{d}c2 A2 B2 | c3 d eg |\
a3 g (e/d/c) | d4 :|[M:C|]|: "_Brisk"e |\
c>BAg agec | defd gfed |
c>BAg agec | d>efg e2d :|\
|: e |\
cBAc E/E/E c2 | defd gfed |\
c>BAc GEce | dagf e2d :|


